Catalina-dark/actions/16/node-delete-segment.svg

<?xml version="1.0" encoding="UTF-8" standalone="no"?>
<svg
   xmlns:dc="http://purl.org/dc/elements/1.1/"
   xmlns:cc="http://creativecommons.org/ns#"
   xmlns:rdf="http://www.w3.org/1999/02/22-rdf-syntax-ns#"
   xmlns:svg="http://www.w3.org/2000/svg"
   xmlns="http://www.w3.org/2000/svg"
   xmlns:sodipodi="http://sodipodi.sourceforge.net/DTD/sodipodi-0.dtd"
   xmlns:inkscape="http://www.inkscape.org/namespaces/inkscape"
   width="16"
   height="16"
   viewBox="0 0 16 16"
   version="1.1"
   id="svg7"
   sodipodi:docname="node-delete-segment.svg"
   inkscape:version="0.92.4 5da689c313, 2019-01-14">
  <metadata
     id="metadata11">
    <rdf:RDF>
      <cc:Work
         rdf:about="">
        <dc:format>image/svg+xml</dc:format>
        <dc:type
           rdf:resource="http://purl.org/dc/dcmitype/StillImage" />
      </cc:Work>
    </rdf:RDF>
  </metadata>
  <sodipodi:namedview
     pagecolor="#ffffff"
     bordercolor="#666666"
     borderopacity="1"
     objecttolerance="10"
     gridtolerance="10"
     guidetolerance="10"
     inkscape:pageopacity="0"
     inkscape:pageshadow="2"
     inkscape:window-width="640"
     inkscape:window-height="480"
     id="namedview9"
     showgrid="false"
     inkscape:zoom="14.75"
     inkscape:cx="6.8135593"
     inkscape:cy="8"
     inkscape:window-x="0"
     inkscape:window-y="26"
     inkscape:window-maximized="0"
     inkscape:current-layer="svg7" />
  <defs
     id="defs3">
    <style
       id="current-color-scheme"
       type="text/css">
   .ColorScheme-Text { color:#5c616c; } .ColorScheme-Highlight { color:#5294e2; }
  </style>
  </defs>
  <path
     style="fill:#f1f6f8;fill-opacity:0.8509804"
     class="ColorScheme-Text"
     d="M 1.0195312 0 L 1.0195312 2 L 0.51171875 2 C -0.16444125 1.9904 -0.16444125 3.0096 0.51171875 3 L 1.0195312 3 L 1.0195312 5 L 5.0195312 5 L 5.0195312 3 L 10.019531 3 L 10.019531 5 L 14.019531 5 L 14.019531 2.9980469 L 14.515625 2.9980469 C 15.180985 2.9980469 15.180985 2 14.515625 2 L 14.019531 2 L 14.019531 0 L 10.019531 0 L 10.019531 2 L 5.0195312 2 L 5.0195312 0 L 1.0195312 0 z M 7 5.0273438 L 7 7.0273438 L 5 7.0273438 L 7.5 10.027344 L 10 7.0273438 L 8 7.0273438 L 8 5.0273438 L 7 5.0273438 z M 1.0195312 11 L 1.0195312 13 L 0.51171875 13 C -0.16444125 12.9904 -0.16444125 14.0096 0.51171875 14 L 1.0195312 14 L 1.0195312 16 L 5.0195312 16 L 5.0195312 14 L 5.0195312 13 L 5.0195312 11 L 1.0195312 11 z M 10.019531 11 L 10.019531 13 L 10.019531 14 L 10.019531 16 L 14.019531 16 L 14.019531 13.998047 L 14.515625 13.998047 C 15.180985 13.998047 15.180985 13 14.515625 13 L 14.019531 13 L 14.019531 11 L 10.019531 11 z"
     id="path5" />
</svg>

<svg width="16" height="16" version="1.1" viewBox="0 0 16 16" xmlns="http://www.w3.org/2000/svg">
<defs>
<style id="current-color-scheme" type="text/css">.ColorScheme-Text { color:#5c616c; } .ColorScheme-Highlight { color:#5294e2; }</style>
</defs>
<path class="ColorScheme-Text" d="m1.0195 0v2h-0.50781c-0.67616-0.0096-0.67616 1.0096 0 1h0.50781v2h4v-2h5v2h4v-2.002h0.49609c0.66536 0 0.66536-0.99805 0-0.99805h-0.49609v-2h-4v2h-5v-2h-4zm5.9805 5.0273v2h-2l2.5 3 2.5-3h-2v-2h-1zm-5.9805 5.9727v2h-0.50781c-0.67616-0.0096-0.67616 1.0096 0 1h0.50781v2h4v-2-1-2h-4zm9 0v2 1 2h4v-2.002h0.49609c0.66536 0 0.66536-0.99805 0-0.99805h-0.49609v-2h-4z" fill="#dedede" fill-opacity=".85098"/>
</svg>
